assets/images/cancle.svg

<svg fill="none" height="40" viewBox="0 0 40 40" width="40" xmlns="http://www.w3.org/2000/svg" xmlns:xlink="http://www.w3.org/1999/xlink"><clipPath id="a"><path d="m0 0h40v40h-40z"/></clipPath><g clip-path="url(#a)" clip-rule="evenodd" fill="#fff" fill-rule="evenodd"><path d="m20 37.5c4.6413 0 9.0925-1.8437 12.3744-5.1256s5.1256-7.7331 5.1256-12.3744-1.8437-9.0925-5.1256-12.37437c-3.2819-3.28189-7.7331-5.12563-12.3744-5.12563s-9.0925 1.84374-12.37437 5.12563c-3.28189 3.28187-5.12563 7.73307-5.12563 12.37437s1.84374 9.0925 5.12563 12.3744c3.28187 3.2819 7.73307 5.1256 12.37437 5.1256zm0 2.5c5.3043 0 10.3914-2.1071 14.1421-5.8579 3.7508-3.7507 5.8579-8.8378 5.8579-14.1421s-2.1071-10.39141-5.8579-14.14214c-3.7507-3.75072-8.8378-5.85786-14.1421-5.85786s-10.39141 2.10714-14.14214 5.85786c-3.75072 3.75073-5.85786 8.83784-5.85786 14.14214s2.10714 10.3914 5.85786 14.1421c3.75073 3.7508 8.83784 5.8579 14.14214 5.8579z"/><path d="m29.6351 10.365c.1164.1161.2088.254.2718.4059.063.1518.0954.3146.0954.4791 0 .1644-.0324.3272-.0954.479-.063.1519-.1554.2898-.2718.406l-17.5 17.5c-.2347.2347-.553.3665-.885.3665-.3319 0-.6503-.1318-.885-.3665-.2347-.2348-.36656-.5531-.36656-.885 0-.332.13186-.6503.36656-.885l17.5-17.5c.1161-.1164.2541-.2088.4059-.2718.1519-.063.3147-.09547.4791-.09547s.3272.03247.4791.09547.2898.1554.4059.2718z"/><path d="m10.365 10.365c-.1164.1161-.2087.254-.2717.4059-.0631.1518-.0955.3146-.0955.4791 0 .1644.0324.3272.0955.479.063.1519.1553.2898.2717.406l17.5 17.5c.2348.2347.5531.3665.885.3665.332 0 .6503-.1318.885-.3665.2348-.2348.3666-.5531.3666-.885 0-.332-.1318-.6503-.3666-.885l-17.5-17.5c-.1161-.1164-.254-.2088-.4059-.2718-.1518-.063-.3146-.09547-.4791-.09547-.1644 0-.3272.03247-.479.09547-.1519.063-.2898.1554-.406.2718z"/></g></svg>

<svg width="40" height="40" viewBox="0 0 40 40" fill="none" xmlns="http://www.w3.org/2000/svg">
<g clip-path="url(#clip0)">
<path fill-rule="evenodd" clip-rule="evenodd" d="M20 37.5C24.6413 37.5 29.0925 35.6563 32.3744 32.3744C35.6563 29.0925 37.5 24.6413 37.5 20C37.5 15.3587 35.6563 10.9075 32.3744 7.62563C29.0925 4.34374 24.6413 2.5 20 2.5C15.3587 2.5 10.9075 4.34374 7.62563 7.62563C4.34374 10.9075 2.5 15.3587 2.5 20C2.5 24.6413 4.34374 29.0925 7.62563 32.3744C10.9075 35.6563 15.3587 37.5 20 37.5ZM20 40C25.3043 40 30.3914 37.8929 34.1421 34.1421C37.8929 30.3914 40 25.3043 40 20C40 14.6957 37.8929 9.60859 34.1421 5.85786C30.3914 2.10714 25.3043 0 20 0C14.6957 0 9.60859 2.10714 5.85786 5.85786C2.10714 9.60859 0 14.6957 0 20C0 25.3043 2.10714 30.3914 5.85786 34.1421C9.60859 37.8929 14.6957 40 20 40Z" fill="white"/>
<path fill-rule="evenodd" clip-rule="evenodd" d="M29.6351 10.365C29.7515 10.4811 29.8439 10.619 29.9069 10.7709C29.9699 10.9227 30.0023 11.0855 30.0023 11.25C30.0023 11.4144 29.9699 11.5772 29.9069 11.729C29.8439 11.8809 29.7515 12.0188 29.6351 12.135L12.1351 29.635C11.9004 29.8697 11.5821 30.0015 11.2501 30.0015C10.9182 30.0015 10.5998 29.8697 10.3651 29.635C10.1304 29.4002 9.99854 29.0819 9.99854 28.75C9.99854 28.418 10.1304 28.0997 10.3651 27.865L27.8651 10.365C27.9812 10.2486 28.1192 10.1562 28.271 10.0932C28.4229 10.0302 28.5857 9.99773 28.7501 9.99773C28.9145 9.99773 29.0773 10.0302 29.2292 10.0932C29.3811 10.1562 29.519 10.2486 29.6351 10.365Z" fill="white"/>
<path fill-rule="evenodd" clip-rule="evenodd" d="M10.365 10.365C10.2486 10.4811 10.1563 10.619 10.0933 10.7709C10.0302 10.9227 9.9978 11.0855 9.9978 11.25C9.9978 11.4144 10.0302 11.5772 10.0933 11.729C10.1563 11.8809 10.2486 12.0188 10.365 12.135L27.865 29.635C28.0998 29.8697 28.4181 30.0015 28.75 30.0015C29.082 30.0015 29.4003 29.8697 29.635 29.635C29.8698 29.4002 30.0016 29.0819 30.0016 28.75C30.0016 28.418 29.8698 28.0997 29.635 27.865L12.135 10.365C12.0189 10.2486 11.881 10.1562 11.7291 10.0932C11.5773 10.0302 11.4145 9.99773 11.25 9.99773C11.0856 9.99773 10.9228 10.0302 10.771 10.0932C10.6191 10.1562 10.4812 10.2486 10.365 10.365Z" fill="white"/>
</g>
<defs>
<clipPath id="clip0">
<rect width="40" height="40" fill="white"/>
</clipPath>
</defs>
</svg>
